X:1
T:Un advocat dit à sa femme
T:Jean de Castro
T:Source : Livre de chansons à 3 parties---Paris---A.le Roy & R.Ballard---1575. Editor : André Vierendeels (24/09/15).
T:Notes : Original clefs : C1, C3, C4 Editorial accidentals above the staff 
T:Un advocat dit à sa femme
C:Jean de Castro
%%score [ 1 [ 2 3 ] ]
L:1/8
Q:1/4=90
M:2/2
K:C
V:1 treble nm="Superius" snm="S"
V:2 treble-8 nm="Tenor 1" snm="T 1"
V:3 treble-8 nm="Tenor 2" snm="T 2"
V:1
 z8 | A4 F2 F2 | D4 z2 d2 | c2 A2 G2 c2 | B2 A2 ^G4 | A4 z4 | G2 A2 _B4 | A4 A2 B2 | c4 A4 | %9
w: |Un ad- vo-|cat, un|ad- vo- cat dit|a sa fem-|me:|Sus ma- mi-|e, sus ma-|mi- e,|
 G2 c3 BAG | AB c4 B2 | c4 z2 G2- | G2 A2 B2 c2- | c2 c2 B2 A2 |"^#" G2 A3 G/F/ G2 | A4 z4 | %16
w: que jou- * * *|* * * rons|nous? Si|_ je gai- gne,|_ se dit la|da- * * * *|me,|
 E2 E2 ^F4 | G4 A4 | z4 E2 E2 | ^F4 G2 A2- | A2 B3 B c2 | z2 c4 BA | c4 B4 | c8 | z4 A2 A2 | %25
w: vous le me|fe- rez,|vous le-|me fe- rez|_ qua- tre coups,|qua- * *|* tre|coups,|qua- tre|
 A4 c4- | c2 B2 A2 A2 | B4 z2 B2 | c4 A2 G2- | G2 F2 E2 D2 | E4 z2 A2 |: G4 z2 EF | G4 z2 GA | %33
w: coups, c'est|_ cou- ché trop|gros, com-|ment se- rait|_ jeu sans pi-|tié, non|non non non|non non non|
 B6 c2 | B2 G2 A2 B2 | c2 G4 F2 | E4 D4 | E4 z2 c2 | B2 c2 A3 G/F/ |"^#""^#" G2 A4 G2 |1 %40
w: non mais-|tre, te- nez les|tous, dit le|clerc, je|suis, je|suis de moy- * *||
 A4 z2 A2 :|2 A4 z2 A2- || A2 A2 F2 F2 | !fermata!E8 |] %44
w: tié, non|tié, je|_ suis de moy-|tié.|
V:2
 A4 F2 F2 | D4 z2 d2 | B2 B2 G2 g2 | e2 f2 d2 c2 | e2 c2 B4 | ^c4 e4- | e2 f2 g4 | f4 f2 g2 | %8
w: Un ad- vo-|cat, un|ad- vo- cat,- un|ad- vo- cat dit|à sa fem-|me: Sus|_ me mi-|e, sus ma-|
 a4 f4 | e2 e2 c4 | f3 e d2 d2 | e4 z4 | c3 c d2 e2 | f2 e4 A2 | c2 BA B4 | d4 A2 A2 | ^c4 d4 | %17
w: mi- e,|sus ma mi-|e, que jou- rons|nous?|Si je gai- gne,|se dit la|da- * * *|me, vous le|me fe-|
 e4 A2 A2 | B4 ^c4 | d4 e2 e2 | ^f4 g4 | a4 a4- | a4 g4 | a8 | z4 f2 f2 | f4 a2 a2 | %26
w: rez, vous le|me fe-|rez, vous le|me fe-|rez qua-|* tre|coups,|qua- tre|coups, c'est cou-|
"^#""^#" e2 g3 f/e/ f2 | g4 z2 g2 | a2 f4 e2- | e2 d2 c2 B2 | A4 f4 |: e2 d2 z2 cd | e4 z2 ef | %33
w: ché trop _ _ _|gros, com-|ment se- rait|_ jeu sans pi-|tié, non|non non non non|non non non|
 g6 a2 | g2 e2 f2 g2 | e2 e4 d2 | c4 G4 | c8 | z2 e4 d2 | c4 B4 |1 A4 f4 :|2 A2 f4 e2 || d4 d4 | %43
w: non mais-|tre, te- nez les|tous, dit le|clerc, je|suis|je suis|de moy-|tié, non|tié, je suis|de moy-|
 !fermata!^c8 |] %44
w: tié.|
V:3
 z4 A4 | F2 F2 D4 |"^-natural" z2 d2 B2 G2 | A2 F2 G2 A2 | E8 | A4 A2 B2 | c4 G4 | d2 e2 f4- | %8
w: Un|ad- vo- cat,|un ad- vo-|cat dit à se|fem-|me: Sus a-|mi- e,|sus ma- mi-|
 f2 F3 GAB | c4 A4 | F4 G4 | c8 | z8 | z2 A2 G2 F2 | E8 | D8 | z8 | E2 E2 ^F4 | G4 A4 | z4 c2 c2 | %20
w: * e, _ _ _|que jou-|* rons|nous?||se- dit la|da-|me,||vous le me|fe- rez,|vous le|
 d4 e4 | f8 | e6 e2 | A4 F2 F2 | F8 | z2 f4 f2 | c4 d4 | G8 | z8 | z8 | z4 F4 |: c2 G2 A4 | %32
w: me fe-|rez|qua- tre|coups, qua- tre|coups,|c'est cou-|ché trop|gros,|||non|non non non|
 z2 E2 c4 | z2 G2 G2 F2 | G2 c2 A2 G2 | c4 z4 | z2 c4 B2 | A6 A2 | ^G2 A2 F4 | E8 |1 z4 F4 :|2 %41
w: non non|non non mais-|tre, te- nez les|tous,|dit le|clerc, je|suis de moy-|tié,|non|
 z2 D4 ^C2 || D4 D4 | !fermata!A8 |] %44
w: je suis|de moy-|tié.|

